X: 1
T: Great Exhibition, The
M: 4/4
L: 1/8
R: hornpipe
K: Fmaj
ce|fcaf cfAc|cBdB G2cB|Acfe dgba|(3gaf (3efd cbag|
fcaf cfAc|cBdB G2cB|AfcA Bbge|g2f2 f2:|
|:AB|cdef gceg|fAcf acfa|g2ba gfef|(3gaf (3efd cbag|
fcaf cfAc|cBdB GdcB|AfcA Bbge|g2f2 f2:|
